X:19052
T:Xiraldilla (CT 313)
R:Xiraldilla
C:Tradicional
S:Música Tradicional Asturiana, (C) Tello & Tito. Asturies, 2001.
S:http://pagina.de/MusTradAst <telloytito@asturies.org>
N:Xiraldilla, dictada por Pedro Menéndez, "El Manjoyu", de treinta y nueve años, de San Esteban de Las Cruces, ayuntamiento de Uviéu.
O:San Esteban de Las Cruces (Uviéu)
A:Asturies
Z:Cancioneru de Torner 313
M:2/4
L:1/8
Q:1/4=160
W:Si me quieres de balde,
W:mi vida,
W:toda soi tuya,
W:Si me quieres de balde,
W:mi vida,
W:toda soi tuya,
W:pero por el dinero,
W:mi alma,
W:cosa ninguna.
K:G
|d2 dd|g2 gf|e2 ed|c3 d|e2 fe|[1 d4 :|[2 d2 z2|
d2 Bd|c2 Ac|B2 GB|A3 B|A2 FA|G2 z2||


